X:26
T:Comical Fancy. THO2.026, The
O:London
M:2/4
L:1/8
Q:1/2=100
B:Thompson's Compleat Coll. of 200 Favourite Country Dances, vol.2,1765
Z:Transcribed and edited by Fynn Titford-Mock, 2007
Z:abc's:AK/Fiddler's Companion/VMP 2009
K:A
aecA|afdB|aecA|(3BBB B2|ABcd|ecdB|cedB|(3AAA A2:|
|:cece|BeBe|cedc|(3BBB B2|cece|faec|dBec|(3AAA A2:|

